X:1
T:Title
%%score { ( 1 4 ) | ( 2 3 ) }
L:1/8
Q:1/4=100
M:4/4
K:G
V:1 treble nm="Grand Piano"
V:4 treble 
V:2 bass 
V:3 bass 
V:1
 [DB]3 A [Ec]2 [DB]2 | [CA]3 B [CA]2 [B,G]2 | D2 Gd [ce]2 [Bd]2 | .[GB]2 [B,G]2 [DA]4 | %4
w: F.~J.~Howard * * *||||
 [DB]3 A [Ec]2 [DB]2 | [CA]3 B [CA]2 G2 | B4 z4 | z4 [Fd]4 | G3 B A G3 | B3 d [Ac] B3 | %10
w: ||||||
 e3 d .[Ac]2 .[GB]2 |[M:9/8] A2 ^c- c d2 =c3 |[M:4/4] B3 A c2 B2 |[M:9/8] e3 d [=Fd]2 [Ec]3 | %14
w: ||||
[M:4/4] B3 c d2 [^CB]2 | [CA]3 [B,G] [B,G]4 |] %16
w: ||
V:2
 z2 G,2 z4 | z2 D,2 z4 | G,,2 z[K:treble] B[K:bass] G,,2 G,2 | z D G,2 [D,F,]4 | z2 G,2 z4 | %5
 D,,2 z D G,,2 [D,B,]2 | [G,D]2 z =F A,2 A,2 | z2 A,2 A,2 z2 | [G,B,D]3 [G,D] [G,CD] [G,B,D]3 | %9
 [G,DG]3 [B,DG] [F,D] [G,DG]3 | [CG]3 [B,DG][K:bass] [F,D]2 [G,D]2 | %11
[M:9/8][K:treble] [A,DF]2 [A,G]- [A,G][K:bass] D,2- [D,D]3 | %12
[M:4/4][K:treble] [G,DG]3 [G,CG] [G,EG]2 [G,DG]2 | %13
[M:9/8] [G,B,G]3 [G,B,=F][K:bass] [C,G,]2 [C,G,]3 |[M:4/4] [D,G,D]3 [D,A,D] [D,B,D]2 [A,,G,]2 | %15
 [D,F,]3 [G,,G,] [G,,D,G,]4 |] %16
V:3
 G,,2 z C G,,2 G,2 | D,,2 z D G,,2 D,2 | z2 D,2[K:treble][K:bass] z4 | G,,2 z2 z4 | %4
 G,,2 z C G,,2 G,2 | z2 D,2 z4 | z2 [^G,D]2 z4 | A,,2 z G D,4 | x8 | x8 | x4[K:bass] x4 | %11
[M:9/8][K:treble] z3 z[K:bass] A,2 z3 |[M:4/4][K:treble] x8 |[M:9/8] x4[K:bass] x5 |[M:4/4] x8 | %15
 x8 |] %16
V:4
 x8 | x8 | B4 z4 | x8 | x8 | x8 | z2 EB [DFA]2 [Fd]2 | [Ge]2 .[E^c]2 z2 C2 | x8 | x8 | x8 | %11
[M:9/8] z3 z F2- F3 |[M:4/4] x8 |[M:9/8] x9 |[M:4/4] x8 | x8 |] %16

